!!!COM: Bach, Johann Sebastian
!!!OPR: Joh. Seb. Bachs vierstimmige Choralgesänge
!!!XEN: Four-part Chorales
!!!OTL: 146. O Gott, du frommer Gott
!!!SCT: BWV 399
!!!SCA: Thematisch-systematisches Verzeichnis der musikalischen Werke Johann Sebastian Bach: Bach-Werke-Verzeichnis (Schmieder)
!!!YOR: Bach Gesellschaft Edition xxxix
!!!ENC: Steven Rasmussen
!!!CDT: 1685/3//-1750/7/28/
!!!OCY: Deutschland
!!!YEC: Copyright (c) 1994, 2000 Center for Computer Assisted Research in the Humanities
!!!YEM: Rights to all derivative editions reserved
!!!YEN: United States of America
**kern	**kern	**kern	**kern	**silbe
*I:[BASSO]	*I:[TENORE]	*I:[ALTO]	*I:[SOPRANO]	*I:[SOPRANO]
*>[A,A,B]	*>[A,A,B]	*>[A,A,B]	*>[A,A,B]	*
*>A	*>A	*>A	*>A	*
*clefF4	*clefGv2	*clefG2	*clefG2	*
*k[f#]	*k[f#]	*k[f#]	*k[f#]	*
*G:	*G:	*G:	*G:	*
*M4/4	*M4/4	*M4/4	*M4/4	*
4E	8GL	4g	4b	Oohn'
.	8AJ	.	.	.
=1	=1	=1	=1	=1
(8E	4.B	4f#	4b	Gott,den
4D)	.	.	.	.
.	.	8gL	4ee	duNichts
8C	8A	8f#J	.	.
8BBL	8BL	4g	4dd	from-ist,
8CJ	8eJ	.	.	.
4D	4d	4f#	16ccLL	-merwas
.	.	.	16bJ	.
.	.	.	8ccJ	.
=2	=2	=2	=2	=2
2.GG;	2.d;	2.g;	2.b;	Gott,ist,
8GGL	8dL	4g	8bL	duvon
8AAJ	8cJ	.	8ccJ	.
=3	=3	=3	=3	=3
4BB	8BL	8gL	4dd	Brunn-dem
.	8AJ	8f#J	.	.
4C	4G	8eL	4g	-quellwir
.	.	16f#L	.	.
.	.	16gJJ	.	.
8CL	4d	4f#	4a	al-Al-
8BBJ	.	.	.	.
8AAL	4d	4g	4b	-ler-les
8GGJ	.	.	.	.
=4	=4	=4	=4	=4
2D	4.d	8gL	2a	Ga-ha-
.	.	8eJ	.	.
.	.	4f#	.	.
.	8c	.	.	.
4GG;	4B;	4d;	4g;	-ben,-ben,
=:|!	=:|!	=:|!	=:|!	=:|!
*>B	*>B	*>B	*>B	*
4G	4c#	4e	4a	ge-
=5	=5	=5	=5	=5
8GL	4d	4d	4a	-sun-
8F#J	.	.	.	.
8EL	4d	4f#	4b	-den
8DJ	.	.	.	.
4E	8cL	4g	8ccL	Leib
.	8BJ	.	8eeJ	.
4F#	8AL	4a	8ddL	gib
.	8dJ	.	8ccJ	.
=6	=6	=6	=6	=6
2.G;	2.d;	2.g;	2.b;	mir,
4GG	4d	8gL	4b	und
.	.	8f#J	.	.
=7	=7	=7	=7	=7
8GL	8c#L	8eL	4a	dass
8F#J	8AJ	16dL	.	.
.	.	16c#JJ	.	.
8BL	8GL	4d	8ddL	in
8AJ	8F#J	.	16eeL	.
.	.	.	16ff#JJ	.
8GL	8BL	8gL	4ee	sol-
8EJ	8gJ	8bJ	.	.
4A	8f#L	8aL	8ddL	-chem
.	8eJ	8gJ	8cc#J	.
=8	=8	=8	=8	=8
2.D;	2.d;	2.f#;	2.dd;	Leib
8dL	4f#	4a	4dd	ein'
8cJ	.	.	.	.
=9	=9	=9	=9	=9
8BL	4g	4g	4dd	un-
8AJ	.	.	.	.
8GL	4d	4g	4b	-ver-
8FnJ	.	.	.	.
8EL	4e	4g	4cc	-letz-
8DJ	.	.	.	.
8CL	4fn	4g	4dd	-te
8BBJ	.	.	.	.
=10	=10	=10	=10	=10
2.C;	2.e;	2.g;	2.ee;	Seel'
4D	4d	4f#	4a	und
=11	=11	=11	=11	=11
8GGL	4d	4g	8bL	rein
8AAJ	.	.	16ccL	.
.	.	.	16ddJJ	.
8BBL	8dL	4g	8ccL	Ge-
8CJ	8eJ	.	8bJ	.
4D	4d	4g	4b	-wis-
4D	4c	4f#	8aL	-sen
.	.	.	8gJ	.
=12	=12	=12	=12	=12
2.GG;	2.B;	2.d;	2.g;	bleib'.
==|!	==|!	==|!	==|!	==|!
*-	*-	*-	*-	*-
!!!RWG: Key is interpreted using the Humdrum key tool.
!!!URL-pdf: https://s9.imslp.org/files/imglnks/usimg/6/6b/IMSLP24489-PMLP09471-CCARH_Bach_Chorales.pdf#page=102 Musedata edition
!!!URL-pdf: https://s9.imslp.org/files/imglnks/usimg/7/7a/IMSLP04155-Bach_-_BGA_253-438.pdf#page=80 	Bach-Gesellschaft Ausgabe, Band 39 (pp.175-276) Leipzig: Breitkopf und Härtel, 1892. Plate B.W. XXXIX.
!!!END: 1994/07/27
!!!EMD: Converted from MuseData to Humdrum Dec 19, 2000, by Andreas Kornstaedt using muse2kern.
!!!EED: Craig Stuart Sapp
!!!EEV: 2024/03/31
!!!filter-keyboard: satb2gs
